X: 25194
T: Malarky, The
R: jig
M: 6/8
K: Bminor
|:dcB DFB|Bdf edc|dcB FDF|B,DF EFA|
dcB DFB|Bdf edc|dcB FBd|1 cBA FBB:|2 cBA B2A||
|:~B3 ~b3|~B3 ~a3|~B3 ~g3|fgf edc|
~B3 b2a|~B3 gef|ged efg|1 fed ecA:|2 fed edc||

